X: 36
T:Ravelled Hank of Yarn
M:4/4
L:1/8
R:Reel
K:G
B3 d A3 B|GB~B2 GB~B2|dA~A2 dcde|1fdcA BG~G2:|2fdcA BG~G2||
dG~G2 dGBd|gfga bgeg|dG~G2 dGBd|(3efg dB BA~A2|
dG~G2 dGBd|gfga bgef|gfga bgaf|gedc BG GA||

